X:1
T:Unity, 66.66.88
T:Unity, 66.66.88
T:Raymond Huntington Woodman, 1895
T:Public Domain Courtesy of the Cyber Hymnal™
C:Raymond Huntington Woodman, 1895
Z:Public Domain
Z:Courtesy of the Cyber Hymnal™
%%score ( 1 2 ) ( 3 4 )
L:1/8
Q:1/4=115
M:4/4
K:C
V:1 treble 
V:2 treble 
V:3 bass 
V:4 bass 
V:1
 G2 | C3 C E2 [EG]2 | [^Fc]6 [FB]2 | [EB]2 [EG]2 G2 [^FA]2 | G6 [DG]2 | G2 [Gc]2 [Fc]2 [FB]2 | %6
 [Ee]2 [Ed]2 [Ec]2 [EA]2 | [DG]4 [D^F]4 | [DG]6 [DG]2 | [EA]2 [Gc]2 [FB]2 E2 | %10
 [EA]2 [DA]2 [EG]2 G2 | [GA]2 [FB]2 [Ec]2 [^Fd]2 | [Ge]4 [Fd]4 | [Ec]6 |] %14
V:2
 G2 | C3 C E2 x2 | x8 | x4 G2 x2 | G6 x2 | G2 x6 | x8 | x8 | x8 | x6 E2 | x6 G2 | x8 | x8 | x6 |] %14
V:3
 G,2 | C3 C [B,C]2 [_B,C]2 | [A,E]6 [B,^D]2 | [G,E]2 [E,B,]2 [D,B,]2 [D,C]2 | [G,B,]6 [F,B,]2 | %5
 [E,C]2 [E,G,]2 [D,^G,]2 [D,G,]2 | [C,A,]2 [B,,^G,]2 [A,,A,]2 [C,A,]2 | [D,B,]4 [D,C]4 | %8
 [G,B,]6 [G,B,]2 | [G,C]2 [G,E]2 [G,D]2 [A,C]2 | [F,C]2 [F,B,]2 [C,C]2 [E,C]2 | %11
 [F,C]2 [D,D]2 [A,C]2 [A,C]2 | [G,C]4 [G,,G,B,]4 | [C,G,C]6 |] %14
V:4
 G,2 | C3 C x4 | x8 | x8 | x8 | x8 | x8 | x8 | x8 | x8 | x8 | x8 | x8 | x6 |] %14

